Flat-Remix-Dark/apps/scalable/wikipedia.svg

<svg xmlns="http://www.w3.org/2000/svg" xmlns:xlink="http://www.w3.org/1999/xlink" width="384pt" height="384pt" version="1.1" viewBox="0 0 384 384"> <defs> <filter id="alpha" width="100%" height="100%" x="0%" y="0%" filterUnits="objectBoundingBox"> <feColorMatrix in="SourceGraphic" type="matrix" values="0 0 0 0 1 0 0 0 0 1 0 0 0 0 1 0 0 0 1 0"/> </filter> <mask id="mask0"> <g filter="url(#alpha)"> <rect width="384" height="384" x="0" y="0" style="fill:rgb(0%,0%,0%);fill-opacity:0.2"/> </g> </mask> <clipPath id="clip1"> <rect width="384" height="384" x="0" y="0"/> </clipPath> <g id="surface5" clip-path="url(#clip1)"> <path style="fill:rgb(100.000%,100.000%,100.000%)" d="M 48 32 C 39.136719 32 32 39.136719 32 48 L 32 56 C 32 47.136719 39.136719 40 48 40 L 336 40 C 344.863281 40 352 47.136719 352 56 L 352 48 C 352 39.136719 344.863281 32 336 32 Z M 48 32"/> </g> <mask id="mask1"> <g filter="url(#alpha)"> <rect width="384" height="384" x="0" y="0" style="fill:rgb(0%,0%,0%);fill-opacity:0.2"/> </g> </mask> <clipPath id="clip2"> <rect width="384" height="384" x="0" y="0"/> </clipPath> <g id="surface8" clip-path="url(#clip2)"> <path style="fill:rgb(0%,0%,0%)" d="M 48 360 C 39.136719 360 32 352.863281 32 344 L 32 336 C 32 344.863281 39.136719 352 48 352 L 336 352 C 344.863281 352 352 344.863281 352 336 L 352 344 C 352 352.863281 344.863281 360 336 360 Z M 48 360"/> </g> <mask id="mask2"> <g filter="url(#alpha)"> <rect width="384" height="384" x="0" y="0" style="fill:rgb(0%,0%,0%);fill-opacity:0.2"/> </g> </mask> <clipPath id="clip3"> <rect width="384" height="384" x="0" y="0"/> </clipPath> <g id="surface11" clip-path="url(#clip3)"> <path style="fill:rgb(100.000%,100.000%,100.000%)" d="M 231.855469 120 C 222.757812 119.996094 211.980469 120.03125 205.355469 120.070312 L 204.703125 120.5 L 204.703125 125.089844 C 204.703125 125.648438 204.945312 126.039062 205.429688 126.378906 C 205.921875 126.738281 206.414062 126.953125 206.953125 126.953125 L 209.058594 127.167969 C 214.476562 127.390625 217.027344 128.796875 217.769531 129.679688 C 219.0625 131.238281 219.667969 132.96875 216.535156 139.714844 L 197.804688 176.558594 L 180.886719 142.367188 C 175.332031 131.4375 173.976562 128.027344 182.339844 127.382812 L 185.679688 126.953125 C 187.289062 126.953125 188.074219 126.394531 188.074219 125.304688 L 188.074219 120.5 L 186.839844 120.070312 C 186.839844 120.070312 155.328125 120.125 141.171875 120.140625 L 140.519531 120.574219 L 140.519531 125.375 C 140.519531 126.449219 141.667969 126.738281 143.859375 127.023438 C 151.695312 128.042969 151.5 128.847656 159.25 144.011719 C 160.414062 146.289062 163.824219 153.117188 163.824219 153.117188 L 181.46875 187.382812 C 181.46875 187.382812 185.28125 195.703125 186.621094 198.636719 L 160.996094 249.101562 L 159.542969 248.742188 C 159.542969 248.742188 119.734375 165.855469 108.210938 138.136719 C 107.011719 135.261719 106.46875 133.140625 106.46875 131.828125 C 106.46875 129.011719 109.015625 127.523438 114.164062 127.3125 L 120.191406 127.023438 C 121.78125 127.023438 122.585938 126.417969 122.585938 125.160156 L 122.585938 120.644531 L 122.007812 120.144531 C 122.007812 120.144531 74.355469 120.085938 64.503906 120.144531 L 63.996094 120.644531 L 63.996094 125.375 C 63.996094 126.238281 65.042969 126.785156 67.261719 127.023438 C 73.3125 127.34375 77.328125 128.304688 79.242188 129.890625 C 81.148438 131.496094 83.171875 135.539062 85.847656 141.863281 C 100.316406 176.179688 131.066406 237.453125 146.035156 272.328125 C 150.347656 281.851562 155.71875 283.335938 162.300781 272.039062 C 169.394531 259.050781 181.800781 233.964844 191.847656 213.472656 C 191.992188 211.484375 191.992188 215.316406 193.808594 214.117188 C 203.191406 234.523438 214.519531 259.085938 220.816406 271.894531 C 225.699219 281.835938 231.222656 282.789062 236.863281 272.183594 C 251.601562 239.832031 294.730469 142.503906 294.730469 142.503906 C 296.597656 137.722656 299.160156 134.0625 302.496094 131.390625 C 305.824219 128.742188 310.957031 127.25 317.890625 126.949219 C 319.300781 126.949219 319.996094 126.324219 319.996094 125.082031 L 319.996094 120.496094 L 319.484375 119.992188 L 266.558594 119.992188 L 265.90625 120.496094 L 265.90625 125.082031 C 265.90625 125.625 266.148438 126.035156 266.628906 126.375 C 267.125 126.730469 267.617188 126.949219 268.15625 126.949219 L 272.585938 127.164062 C 278.011719 127.382812 279.488281 128.445312 281.585938 130.246094 C 283.679688 132.089844 283.941406 135.214844 282.3125 139.636719 L 235.484375 249.386719 L 233.667969 248.886719 L 203.902344 188.886719 C 203.933594 188.832031 204.628906 187.453125 204.628906 187.453125 L 228.949219 142.507812 C 231.785156 137.761719 234.535156 133.511719 235.921875 131.539062 C 238.457031 127.933594 239.878906 127.273438 246.8125 126.949219 C 248.222656 126.949219 248.917969 126.34375 248.917969 125.085938 L 248.917969 120.570312 L 248.40625 120.066406 C 248.40625 120.066406 240.953125 120.003906 231.855469 119.996094 Z M 231.855469 120"/> </g> </defs> <g> <path style="fill:rgb(100.000%,100.000%,100.000%)" d="M 352 336 L 352 48 C 352 39.164062 344.835938 32 336 32 L 48 32 C 39.164062 32 32 39.164062 32 48 L 32 336 C 32 344.835938 39.164062 352 48 352 L 336 352 C 344.835938 352 352 344.835938 352 336 Z M 352 336"/> <use mask="url(#mask0)" xlink:href="#surface5"/> <use mask="url(#mask1)" xlink:href="#surface8"/> <use mask="url(#mask2)" xlink:href="#surface11"/> <path style="fill:rgb(29.803%,29.803%,29.803%)" d="M 231.855469 112 C 222.757812 111.996094 211.980469 112.03125 205.355469 112.070312 L 204.703125 112.5 L 204.703125 117.089844 C 204.703125 117.648438 204.945312 118.039062 205.429688 118.378906 C 205.921875 118.738281 206.414062 118.953125 206.953125 118.953125 L 209.058594 119.167969 C 214.476562 119.390625 217.027344 120.796875 217.769531 121.679688 C 219.0625 123.238281 219.667969 124.96875 216.535156 131.714844 L 197.804688 168.558594 L 180.886719 134.367188 C 175.332031 123.4375 173.976562 120.027344 182.339844 119.382812 L 185.679688 118.953125 C 187.289062 118.953125 188.074219 118.394531 188.074219 117.304688 L 188.074219 112.5 L 186.839844 112.070312 C 186.839844 112.070312 155.328125 112.125 141.171875 112.140625 L 140.519531 112.574219 L 140.519531 117.375 C 140.519531 118.449219 141.667969 118.738281 143.859375 119.023438 C 151.695312 120.042969 151.5 120.847656 159.25 136.011719 C 160.414062 138.289062 163.824219 145.117188 163.824219 145.117188 L 181.46875 179.382812 C 181.46875 179.382812 185.28125 187.703125 186.621094 190.636719 L 160.996094 241.101562 L 159.542969 240.742188 C 159.542969 240.742188 119.734375 157.855469 108.210938 130.136719 C 107.011719 127.261719 106.46875 125.140625 106.46875 123.828125 C 106.46875 121.011719 109.015625 119.523438 114.164062 119.3125 L 120.191406 119.023438 C 121.78125 119.023438 122.585938 118.417969 122.585938 117.160156 L 122.585938 112.644531 L 122.007812 112.144531 C 122.007812 112.144531 74.355469 112.085938 64.503906 112.144531 L 63.996094 112.644531 L 63.996094 117.375 C 63.996094 118.238281 65.042969 118.785156 67.261719 119.023438 C 73.3125 119.34375 77.328125 120.304688 79.242188 121.890625 C 81.148438 123.496094 83.171875 127.539062 85.847656 133.863281 C 100.316406 168.179688 131.066406 229.453125 146.035156 264.328125 C 150.347656 273.851562 155.71875 275.335938 162.300781 264.039062 C 169.394531 251.050781 181.800781 225.964844 191.847656 205.472656 C 191.992188 203.484375 191.992188 207.316406 193.808594 206.117188 C 203.191406 226.523438 214.519531 251.085938 220.816406 263.894531 C 225.699219 273.835938 231.222656 274.789062 236.863281 264.183594 C 251.601562 231.832031 294.730469 134.503906 294.730469 134.503906 C 296.597656 129.722656 299.160156 126.0625 302.496094 123.390625 C 305.824219 120.742188 310.957031 119.25 317.890625 118.949219 C 319.300781 118.949219 319.996094 118.324219 319.996094 117.082031 L 319.996094 112.496094 L 319.484375 111.992188 L 266.558594 111.992188 L 265.90625 112.496094 L 265.90625 117.082031 C 265.90625 117.625 266.148438 118.035156 266.628906 118.375 C 267.125 118.730469 267.617188 118.949219 268.15625 118.949219 L 272.585938 119.164062 C 278.011719 119.382812 279.488281 120.445312 281.585938 122.246094 C 283.679688 124.089844 283.941406 127.214844 282.3125 131.636719 L 235.484375 241.386719 L 233.667969 240.886719 L 203.902344 180.886719 C 203.933594 180.832031 204.628906 179.453125 204.628906 179.453125 L 228.949219 134.507812 C 231.785156 129.761719 234.535156 125.511719 235.921875 123.539062 C 238.457031 119.933594 239.878906 119.273438 246.8125 118.949219 C 248.222656 118.949219 248.917969 118.34375 248.917969 117.085938 L 248.917969 112.570312 L 248.40625 112.066406 C 248.40625 112.066406 240.953125 112.003906 231.855469 111.996094 Z M 231.855469 112"/> </g> </svg>

<svg width="512" height="512" version="1.1" viewBox="0 0 384 384" xmlns="http://www.w3.org/2000/svg" xmlns:xlink="http://www.w3.org/1999/xlink"><defs><filter id="alpha" x="0%" y="0%" width="100%" height="100%"><feColorMatrix in="SourceGraphic" values="0 0 0 0 1 0 0 0 0 1 0 0 0 0 1 0 0 0 1 0"/></filter><mask id="d"><g filter="url(#alpha)"><rect width="384" height="384" fill-opacity=".2"/></g></mask><clipPath id="f"><rect width="384" height="384"/></clipPath><g id="a" clip-path="url(#f)"><path d="m48 32c-8.8633 0-16 7.1367-16 16v8c0-8.8633 7.1367-16 16-16h288c8.8633 0 16 7.1367 16 16v-8c0-8.8633-7.1367-16-16-16z" fill="#fff"/></g><clipPath><rect width="384" height="384"/></clipPath><mask id="c"><g filter="url(#alpha)"><rect width="384" height="384" fill-opacity=".2"/></g></mask><clipPath id="e"><rect width="384" height="384"/></clipPath><g id="b" clip-path="url(#e)"><path d="m231.86 120c-9.0977-0.003906-19.875 0.03125-26.5 0.070312l-0.65234 0.42969v4.5898c0 0.55859 0.24219 0.94922 0.72656 1.2891 0.49219 0.35938 0.98437 0.57422 1.5234 0.57422l2.1055 0.21484c5.418 0.22266 7.9688 1.6289 8.7109 2.5117 1.293 1.5586 1.8984 3.2891-1.2344 10.035l-18.73 36.844-16.918-34.191c-5.5547-10.93-6.9102-14.34 1.4531-14.984l3.3398-0.42969c1.6094 0 2.3945-0.55859 2.3945-1.6484v-4.8047l-1.2344-0.42969s-31.512 0.054688-45.668 0.070313l-0.65234 0.43359v4.8008c0 1.0742 1.1484 1.3633 3.3398 1.6484 7.8359 1.0195 7.6406 1.8242 15.391 16.988 1.1641 2.2773 4.5742 9.1055 4.5742 9.1055l17.645 34.266s3.8125 8.3203 5.1523 11.254l-25.625 50.465-1.4531-0.35937s-39.809-82.887-51.332-110.61c-1.1992-2.875-1.7422-4.9961-1.7422-6.3086 0-2.8164 2.5469-4.3047 7.6953-4.5156l6.0273-0.28906c1.5898 0 2.3945-0.60547 2.3945-1.8633v-4.5156l-0.57813-0.5s-47.652-0.058593-57.504 0l-0.50781 0.5v4.7305c0 0.86328 1.0469 1.4102 3.2656 1.6484 6.0508 0.32031 10.066 1.2812 11.98 2.8672 1.9062 1.6055 3.9297 5.6484 6.6055 11.973 14.469 34.316 45.219 95.59 60.188 130.46 4.3125 9.5234 9.6836 11.008 16.266-0.28906 7.0938-12.988 19.5-38.074 29.547-58.566 0.14453-1.9883 0.14453 1.8438 1.9609 0.64453 9.3828 20.406 20.711 44.969 27.008 57.777 4.8828 9.9414 10.406 10.895 16.047 0.28906 14.738-32.352 57.867-129.68 57.867-129.68 1.8672-4.7812 4.4297-8.4414 7.7656-11.113 3.3281-2.6484 8.4609-4.1406 15.395-4.4414 1.4102 0 2.1055-0.625 2.1055-1.8672v-4.5859l-0.51172-0.50391h-52.926l-0.65234 0.50391v4.5859c0 0.54297 0.24219 0.95312 0.72266 1.293 0.49609 0.35547 0.98828 0.57422 1.5273 0.57422l4.4297 0.21484c5.4258 0.21875 6.9023 1.2812 9 3.082 2.0938 1.8438 2.3555 4.9688 0.72656 9.3906l-46.828 109.75-1.8164-0.5-29.766-60c0.03125-0.054688 0.72656-1.4336 0.72656-1.4336l24.32-44.945c2.8359-4.7461 5.5859-8.9961 6.9727-10.969 2.5352-3.6055 3.957-4.2656 10.891-4.5898 1.4102 0 2.1055-0.60547 2.1055-1.8633v-4.5156l-0.51172-0.50391s-7.4531-0.0625-16.551-0.070312z" fill="#fff"/></g></defs><path d="m351.99 332.57v-281.15c0-8.6257-7.1636-15.619-15.999-15.619h-287.98c-8.8354 0-15.999 6.9936-15.999 15.619v281.15c0 8.6257 7.1636 15.619 15.999 15.619h287.98c8.8354 0 15.999-6.9936 15.999-15.619z" fill="#fff" opacity=".2" stroke="#000" stroke-width="7.41"/><path d="m352 336v-288c0-8.8359-7.1641-16-16-16h-288c-8.8359 0-16 7.1641-16 16v288c0 8.8359 7.1641 16 16 16h288c8.8359 0 16-7.1641 16-16z" fill="#fff"/><use mask="url(#d)" xlink:href="#a"/><use mask="url(#c)" xlink:href="#b"/><path d="m231.86 112c-9.0977-0.003906-19.875 0.03125-26.5 0.070312l-0.65234 0.42969v4.5898c0 0.55859 0.24219 0.94922 0.72656 1.2891 0.49219 0.35938 0.98437 0.57422 1.5234 0.57422l2.1055 0.21484c5.418 0.22266 7.9688 1.6289 8.7109 2.5117 1.293 1.5586 1.8984 3.2891-1.2344 10.035l-18.73 36.844-16.918-34.191c-5.5547-10.93-6.9102-14.34 1.4531-14.984l3.3398-0.42969c1.6094 0 2.3945-0.55859 2.3945-1.6484v-4.8047l-1.2344-0.42969s-31.512 0.054688-45.668 0.070313l-0.65234 0.43359v4.8008c0 1.0742 1.1484 1.3633 3.3398 1.6484 7.8359 1.0195 7.6406 1.8242 15.391 16.988 1.1641 2.2773 4.5742 9.1055 4.5742 9.1055l17.645 34.266s3.8125 8.3203 5.1523 11.254l-25.625 50.465-1.4531-0.35937s-39.809-82.887-51.332-110.61c-1.1992-2.875-1.7422-4.9961-1.7422-6.3086 0-2.8164 2.5469-4.3047 7.6953-4.5156l6.0273-0.28906c1.5898 0 2.3945-0.60547 2.3945-1.8633v-4.5156l-0.57813-0.5s-47.652-0.058593-57.504 0l-0.50781 0.5v4.7305c0 0.86328 1.0469 1.4102 3.2656 1.6484 6.0508 0.32031 10.066 1.2812 11.98 2.8672 1.9062 1.6055 3.9297 5.6484 6.6055 11.973 14.469 34.316 45.219 95.59 60.188 130.46 4.3125 9.5234 9.6836 11.008 16.266-0.28906 7.0938-12.988 19.5-38.074 29.547-58.566 0.14453-1.9883 0.14453 1.8438 1.9609 0.64453 9.3828 20.406 20.711 44.969 27.008 57.777 4.8828 9.9414 10.406 10.895 16.047 0.28906 14.738-32.352 57.867-129.68 57.867-129.68 1.8672-4.7812 4.4297-8.4414 7.7656-11.113 3.3281-2.6484 8.4609-4.1406 15.395-4.4414 1.4102 0 2.1055-0.625 2.1055-1.8672v-4.5859l-0.51172-0.50391h-52.926l-0.65234 0.50391v4.5859c0 0.54297 0.24219 0.95312 0.72266 1.293 0.49609 0.35547 0.98828 0.57422 1.5273 0.57422l4.4297 0.21484c5.4258 0.21875 6.9023 1.2812 9 3.082 2.0938 1.8438 2.3555 4.9688 0.72656 9.3906l-46.828 109.75-1.8164-0.5-29.766-60c0.03125-0.054688 0.72656-1.4336 0.72656-1.4336l24.32-44.945c2.8359-4.7461 5.5859-8.9961 6.9727-10.969 2.5352-3.6055 3.957-4.2656 10.891-4.5898 1.4102 0 2.1055-0.60547 2.1055-1.8633v-4.5156l-0.51172-0.50391s-7.4531-0.0625-16.551-0.070312z"/><path transform="scale(.75)" d="m42.666 438v10c0 11.781 9.5527 21.334 21.334 21.334h384c11.781 0 21.334-9.5527 21.334-21.334v-10c0 11.781-9.5527 21.334-21.334 21.334h-384c-11.781 0-21.334-9.5527-21.334-21.334z" opacity=".3" stroke-width="1.3333"/><path transform="scale(.75)" d="m64 42.666c-11.781 0-21.334 9.5527-21.334 21.334v10c0-11.781 9.5527-21.334 21.334-21.334h384c11.781 0 21.334 9.5527 21.334 21.334v-10c0-11.781-9.5527-21.334-21.334-21.334h-384z" opacity=".1" stroke-width="1.3333"/></svg>
